X:1
T:Title
%%score { 1 | 2 }
L:1/8
Q:1/4=100
M:4/4
K:G
V:1 treble nm="Grand Piano"
V:2 treble 
V:1
 B3 B c2 G2 | B4 G4 | [EG]3 [EG] [DF]2 [CE]2 | [B,D]6 z2 | D3 D E2 F2 | G4 B4 | A3 F [^CF]2 [CE]2 | %7
w: Pauline~Gilmour~Hatch * * *|||||||
 D6 z2 | [Fc]3 [Fc] [FB]2 [F_B]2 | B4 G4 | d3 d c2 B2 | E6 z2 | E3 F A2 [EG]2 | G4 D4 | %14
w: |||||||
 E2 [^CB]2 [=CA]3 [CDG] | [B,DG]6 z2 |] %16
w: ||
V:2
 [G,DG]3 [G,^DG] [G,EG]2 [G,D]2 | [G,DG]4[K:bass] [G,B,D]4 | [C,C]3 [C,C] [C,G,]2 [C,G,]2 | %3
 [G,,G,]6 z2 | [D,F,C]3 [D,F,C] [D,G,C]2 [^D,A,C]2 | [E,G,B,]4 [E,G,^C]4 | %6
 [F,A,D]3 [A,D] [A,,A,]2 [A,,G,]2 | [D,F,]6 z2 | [D,A,]3 [D,A,] [D,D]2 [D,D]2 | [G,DG]4 [G,B,D]4 | %10
 [E,^G,E]3 [E,G,E] [E,G,E]2 [E,G,D]2 | [A,C]6 z2 | [^C,G,_B,]3 [C,F,B,] [C,E,B,]2 [C,A,]2 | %13
 [D,B,D]4 [F,A,]4 | [E,G,^C]2 [A,,G,]2 [D,F,]3 G,, | G,,6 z2 |] %16

